src/img/clock.svg

<svg fill="none" height="16" viewBox="0 0 16 16" width="16" xmlns="http://www.w3.org/2000/svg"><path clip-rule="evenodd" d="m7.99984.666687c-4.06667 0-7.333336 3.266663-7.333336 7.333333 0 4.06668 3.266666 7.33338 7.333336 7.33338 4.06666 0 7.33336-3.2667 7.33336-7.33338 0-4.06667-3.2667-7.333333-7.33336-7.333333zm0 13.333313c-3.33334 0-6-2.6666-6-5.99998 0-3.33333 2.66666-6 6-6 3.33336 0 5.99996 2.66667 5.99996 6 0 3.33338-2.6666 5.99998-5.99996 5.99998zm2.46666-3.5333c.2667-.2667.2667-.66668 0-.93335l-1.8-1.8v-3.73333c0-.4-.26666-.66667-.66666-.66667s-.66667.26667-.66667.66667v4c0 .2.06667.33333.2.46667l2 2.00001c.13333.1333.26667.2.46667.2.19996 0 .33336-.0667.46666-.2z" fill="#6f6f6f" fill-rule="evenodd"/></svg>

<svg width="16" height="16" viewBox="0 0 16 16" fill="none" 
  xmlns="http://www.w3.org/2000/svg">
  <path fill-rule="evenodd" clip-rule="evenodd" d="M7.99984 0.666687C3.93317 0.666687 0.666504 3.93335 0.666504 8.00002C0.666504 12.0667 3.93317 15.3334 7.99984 15.3334C12.0665 15.3334 15.3332 12.0667 15.3332 8.00002C15.3332 3.93335 12.0665 0.666687 7.99984 0.666687ZM7.99984 14C4.6665 14 1.99984 11.3334 1.99984 8.00002C1.99984 4.66669 4.6665 2.00002 7.99984 2.00002C11.3332 2.00002 13.9998 4.66669 13.9998 8.00002C13.9998 11.3334 11.3332 14 7.99984 14ZM10.4665 10.4667C10.7332 10.2 10.7332 9.80002 10.4665 9.53335L8.6665 7.73335V4.00002C8.6665 3.60002 8.39984 3.33335 7.99984 3.33335C7.59984 3.33335 7.33317 3.60002 7.33317 4.00002V8.00002C7.33317 8.20002 7.39984 8.33335 7.53317 8.46669L9.53317 10.4667C9.6665 10.6 9.79984 10.6667 9.99984 10.6667C10.1998 10.6667 10.3332 10.6 10.4665 10.4667Z" fill="#6F6F6F"/>
</svg>
